X:17
T:Peacock's Feather
R:barndance
H:See also hornpipe#20, song#38, song#152
D:Len Graham & Joe Holmes: After Dawning
Z:id:hn-barndance-17
M:C|
L:1/8
K:Dmix
AG | FD (3DDD D2DE | FEFA G2FG | AGAB cBAG | F2A,B, C2AG |
FD (3DDD D2DE | FEFA G2FG | AGAB cBAG | F2D2 D2 :|
|: zB | c2Bc dcBc | d2cB c2Bc | d2cA G2FG | A2A,B, C2AG |
FD (3DDD D2DE | FEFA G2FG | AGAB cBAG | F2D2 D2 :|

